img/favicon.svg

<svg width="449" height="449" fill="none" xmlns="http://www.w3.org/2000/svg"><path fill="#E84D37" d="M0 0h449v449H0z"/><path d="M224.861 72.8777c12.203-.0029 24.192 3.1344 34.767 9.0976 10.575 5.9632 19.364 14.543 25.486 24.8797 6.123 10.337 9.363 22.067 9.397 34.017.035 11.949-3.138 23.697-9.201 34.068 4.206.588 8.161 2.311 11.423 4.976 3.261 2.666 5.7 6.168 7.044 10.114 1.344 3.947 1.538 8.181.562 12.23-.976 4.049-3.084 7.751-6.088 10.693-3.004 2.941-6.785 5.005-10.919 5.961-4.135.956-8.46.765-12.49-.551-4.03-1.315-7.607-3.704-10.328-6.898-2.722-3.193-4.482-7.066-5.083-11.185-.862.483-1.748.941-2.634 1.399-1.232 7.425-5.121 14.178-10.972 19.052-5.851 4.874-13.283 7.55-20.964 7.55-7.682 0-15.113-2.676-20.964-7.55-5.851-4.874-9.741-11.627-10.972-19.052-.887-.458-1.773-.916-2.635-1.399-.599 4.122-2.36 7.999-5.084 11.196-2.724 3.197-6.304 5.586-10.339 6.901-4.034 1.315-8.363 1.503-12.5.542-4.137-.96-7.919-3.03-10.921-5.979-3.003-2.948-5.106-6.657-6.075-10.711-.969-4.054-.765-8.292.589-12.239 1.354-3.947 3.805-7.446 7.077-10.104 3.273-2.659 7.237-4.371 11.448-4.946-6.059-10.365-9.232-22.107-9.201-34.05.031-11.943 3.265-23.669 9.378-34.004 6.114-10.3343 14.892-18.9152 25.457-24.8836 10.565-5.9685 22.545-9.115 34.742-9.1247zm0-16.8777c-13.673-.0083-27.154 3.1447-39.348 9.2024-12.193 6.0576-22.753 14.8488-30.821 25.6579-8.067 10.8097-13.415 23.3307-15.607 36.5457-2.192 13.216-1.166 26.751 2.993 39.505-8.061 6.293-13.332 15.389-14.716 25.392-1.383 10.004 1.227 20.145 7.288 28.311s15.106 13.728 25.25 15.528c10.144 1.799 20.607-.302 29.208-5.867 4.645 4.719 10.213 8.473 16.373 11.037 6.16 2.565 12.785 3.886 19.478 3.886 6.694 0 13.318-1.321 19.478-3.886 6.16-2.564 11.729-6.318 16.373-11.037 8.605 5.243 18.92 7.095 28.865 5.184 9.945-1.912 18.78-7.446 24.722-15.485s8.549-17.986 7.296-27.834c-1.254-9.848-6.275-18.864-14.05-25.229 4.16-12.754 5.185-26.289 2.993-39.505-2.192-13.215-7.539-25.736-15.607-36.5457-8.068-10.8091-18.628-19.6003-30.821-25.6579-12.193-6.0577-25.675-9.2107-39.347-9.2024z" fill="#fff"/><path d="M282.06 246.019c-6.78-.015-13.485-1.393-19.699-4.051-.911.724-1.871 1.375-2.831 2.05l1.305 1.254-9.603 9.403-4.112-4.027c-1.699.651-3.423 1.23-5.196 1.736l5.811 5.691-9.578 9.403-9.652-9.403 3.816-3.738c-2.45.306-4.917.468-7.386.483-2.396-.006-4.79-.159-7.166-.458l3.792 3.713-9.603 9.403-9.603-9.403 5.762-5.642c-1.753-.492-3.479-1.071-5.171-1.736l-4.136 3.978-9.702-9.403 1.207-1.182c-1.01-.699-1.995-1.374-2.955-2.122-6.214 2.658-12.918 4.036-19.698 4.051h-1.478c-.187 1.314-.052 2.653.394 3.906l50.182 137.722c.055.165.12.326.197.483.067.167.149.329.246.482.172.337.369.651.566.964l.222.314c.303.397.641.768 1.009 1.109l.247.193.96.723.443.241c.341.185.695.346 1.059.482h.271l.985.241h.394c.912.161 1.845.161 2.757 0h.419l.96-.241h.419c.354-.141.699-.302 1.034-.482l.443-.265c.346-.198.668-.432.961-.699l.27-.193c.362-.347.7-.717 1.01-1.109l.197-.314c.22-.307.418-.629.591-.964l.443-.965 50.28-137.794c.458-1.251.593-2.592.394-3.906-.492 0-.862.072-1.477.072zm-34.472 37.686l-9.603 9.403-9.48-9.403 9.578-9.404 9.505 9.404zm-32.232 12.803l9.603-9.404 9.603 9.404-9.603 9.403-9.603-9.403zm19.206 25.63l-9.603 9.403-9.603-9.403 9.603-9.404 9.603 9.404zm-9.603-60.64l9.603 9.404-9.603 9.331-9.603-9.404 9.603-9.331zm-3.472 22.207l-9.603 9.403-9.603-9.403 9.603-9.404 9.603 9.404zm-36.713-34.093l.936-.917 9.603 9.38-5.491 5.28-5.048-13.743zm6.796 18.879l7.141-6.993 9.578 9.404-9.479 9.331-4.408-4.316-2.832-7.426zm6.969 18.975l.271-.265 9.578 9.403-4.802 4.822-5.047-13.96zm10.267 28.33l-3.496-9.644 6.476-6.317 9.603 9.403-9.505 9.572-3.078-3.014zm8.446 23.195l-4.604-12.586 8.741 8.536-4.137 4.05zm7.51 20.639l-5.688-15.624 5.787-5.666 5.638 5.522-5.737 15.768zm7.584-20.783l-3.841-3.906 8.396-8.246-4.555 12.152zm8.47-22.737l-2.782 2.7-9.529-9.499 9.578-9.38 6.328 6.173-3.595 10.006zm5.467-15.021l-4.654-4.581 9.603-9.404v.121l-4.949 13.864zm9.036-24.811l-4.186 3.955-9.603-9.404 9.603-9.403 6.919 6.92-2.733 7.932zm4.629-12.923l-5.343-5.256 9.603-9.404.788.772-5.048 13.888z" fill="#fff"/></svg>

<svg width="449" height="449" viewBox="0 0 449 449" fill="none" xmlns="http://www.w3.org/2000/svg">
<rect width="449" height="449" fill="#E84D37"/>
<path d="M224.861 72.8777C237.064 72.8748 249.053 76.0121 259.628 81.9753C270.203 87.9385 278.992 96.5183 285.114 106.855C291.237 117.192 294.477 128.922 294.511 140.872C294.546 152.821 291.373 164.569 285.31 174.94C289.516 175.528 293.471 177.251 296.733 179.916C299.994 182.582 302.433 186.084 303.777 190.03C305.121 193.977 305.315 198.211 304.339 202.26C303.363 206.309 301.255 210.011 298.251 212.953C295.247 215.894 291.466 217.958 287.332 218.914C283.197 219.87 278.872 219.679 274.842 218.363C270.812 217.048 267.235 214.659 264.514 211.465C261.792 208.272 260.032 204.399 259.431 200.28C258.569 200.763 257.683 201.221 256.797 201.679C255.565 209.104 251.676 215.857 245.825 220.731C239.974 225.605 232.542 228.281 224.861 228.281C217.179 228.281 209.748 225.605 203.897 220.731C198.046 215.857 194.156 209.104 192.925 201.679C192.038 201.221 191.152 200.763 190.29 200.28C189.691 204.402 187.93 208.279 185.206 211.476C182.482 214.673 178.902 217.062 174.867 218.377C170.833 219.692 166.504 219.88 162.367 218.919C158.23 217.959 154.448 215.889 151.446 212.94C148.443 209.992 146.34 206.283 145.371 202.229C144.402 198.175 144.606 193.937 145.96 189.99C147.314 186.043 149.765 182.544 153.037 179.886C156.31 177.227 160.274 175.515 164.485 174.94C158.426 164.575 155.253 152.833 155.284 140.89C155.315 128.947 158.549 117.221 164.662 106.886C170.776 96.5517 179.554 87.9708 190.119 82.0024C200.684 76.0339 212.664 72.8874 224.861 72.8777ZM224.861 56C211.188 55.9917 197.707 59.1447 185.513 65.2024C173.32 71.26 162.76 80.0512 154.692 90.8603C146.625 101.67 141.277 114.191 139.085 127.406C136.893 140.622 137.919 154.157 142.078 166.911C134.017 173.204 128.746 182.3 127.362 192.303C125.979 202.307 128.589 212.448 134.65 220.614C140.711 228.78 149.756 234.342 159.9 236.142C170.044 237.941 180.507 235.84 189.108 230.275C193.753 234.994 199.321 238.748 205.481 241.312C211.641 243.877 218.266 245.198 224.959 245.198C231.653 245.198 238.277 243.877 244.437 241.312C250.597 238.748 256.166 234.994 260.81 230.275C269.415 235.518 279.73 237.37 289.675 235.459C299.62 233.547 308.455 228.013 314.397 219.974C320.339 211.935 322.946 201.988 321.693 192.14C320.439 182.292 315.418 173.276 307.643 166.911C311.803 154.157 312.828 140.622 310.636 127.406C308.444 114.191 303.097 101.67 295.029 90.8603C286.961 80.0512 276.401 71.26 264.208 65.2024C252.015 59.1447 238.533 55.9917 224.861 56Z" fill="white"/>
<path d="M282.06 246.019C275.28 246.004 268.575 244.626 262.361 241.968C261.45 242.692 260.49 243.343 259.53 244.018L260.835 245.272L251.232 254.675L247.12 250.648C245.421 251.299 243.697 251.878 241.924 252.384L247.735 258.075L238.157 267.478L228.505 258.075L232.321 254.337C229.871 254.643 227.404 254.805 224.935 254.82C222.539 254.814 220.145 254.661 217.769 254.362L221.561 258.075L211.958 267.478L202.355 258.075L208.117 252.433C206.364 251.941 204.638 251.362 202.946 250.697L198.81 254.675L189.108 245.272L190.315 244.09C189.305 243.391 188.32 242.716 187.36 241.968C181.146 244.626 174.442 246.004 167.662 246.019C167.169 246.019 166.677 246.019 166.184 246.019C165.997 247.333 166.132 248.672 166.578 249.925L216.76 387.647C216.815 387.812 216.88 387.973 216.957 388.13C217.024 388.297 217.106 388.459 217.203 388.612C217.375 388.949 217.572 389.263 217.769 389.576L217.991 389.89C218.294 390.287 218.632 390.658 219 390.999L219.247 391.192L220.207 391.915L220.65 392.156C220.991 392.341 221.345 392.502 221.709 392.638H221.98L222.965 392.879H223.359C224.271 393.04 225.204 393.04 226.116 392.879H226.535L227.495 392.638H227.914C228.268 392.497 228.613 392.336 228.948 392.156L229.391 391.891C229.737 391.693 230.059 391.459 230.352 391.192L230.622 390.999C230.984 390.652 231.322 390.282 231.632 389.89L231.829 389.576C232.049 389.269 232.247 388.947 232.42 388.612L232.863 387.647L283.143 249.853C283.601 248.602 283.736 247.261 283.537 245.947C283.045 245.947 282.675 246.019 282.06 246.019ZM247.588 283.705L237.985 293.108L228.505 283.705L238.083 274.301L247.588 283.705ZM215.356 296.508L224.959 287.104L234.562 296.508L224.959 305.911L215.356 296.508ZM234.562 322.138L224.959 331.541L215.356 322.138L224.959 312.734L234.562 322.138ZM224.959 261.498L234.562 270.902L224.959 280.233L215.356 270.829L224.959 261.498ZM221.487 283.705L211.884 293.108L202.281 283.705L211.884 274.301L221.487 283.705ZM184.774 249.612L185.71 248.695L195.313 258.075L189.822 263.355L184.774 249.612ZM191.57 268.491L198.711 261.498L208.289 270.902L198.81 280.233L194.402 275.917L191.57 268.491ZM198.539 287.466L198.81 287.201L208.388 296.604L203.586 301.426L198.539 287.466ZM208.806 315.796L205.31 306.152L211.786 299.835L221.389 309.238L211.884 318.81L208.806 315.796ZM217.252 338.991L212.648 326.405L221.389 334.941L217.252 338.991ZM224.762 359.63L219.074 344.006L224.861 338.34L230.499 343.862L224.762 359.63ZM232.346 338.847L228.505 334.941L236.901 326.695L232.346 338.847ZM240.816 316.11L238.034 318.81L228.505 309.311L238.083 299.931L244.411 306.104L240.816 316.11ZM246.283 301.089L241.629 296.508L251.232 287.104V287.225L246.283 301.089ZM255.319 276.278L251.133 280.233L241.53 270.829L251.133 261.426L258.052 268.346L255.319 276.278ZM259.948 263.355L254.605 258.099L264.208 248.695L264.996 249.467L259.948 263.355Z" fill="white"/>
</svg>
